src/static/src/img/icons/access.svg

<svg height="41" viewBox="0 0 41 41" width="41" xmlns="http://www.w3.org/2000/svg"><g fill="none" fill-rule="evenodd"><path d="m-1069-4390h1440v6628h-1440z" fill="#fff"/><circle cx="20.5" cy="20.5" fill="#34a853" fill-rule="nonzero" r="20.5"/><g transform="translate(12 9)"><path d="m0 3h24v24h-24z"/><path d="m9 16c1.1 0 2-.9 2-2s-.9-2-2-2-2 .9-2 2 .9 2 2 2zm6-9h-1v-2c0-2.76-2.24-5-5-5s-5 2.24-5 5h1.9c0-1.71 1.39-3.1 3.1-3.1s3.1 1.39 3.1 3.1v2h-9.1c-1.1 0-2 .9-2 2v10c0 1.1.9 2 2 2h12c1.1 0 2-.9 2-2v-10c0-1.1-.9-2-2-2zm0 12h-12v-10h12z" fill="#fff" fill-rule="nonzero"/></g></g></svg>

<?xml version="1.0" encoding="UTF-8"?>
<svg width="41px" height="41px" viewBox="0 0 41 41" version="1.1" xmlns="http://www.w3.org/2000/svg" xmlns:xlink="http://www.w3.org/1999/xlink">
    <!-- Generator: Sketch 51 (57462) - http://www.bohemiancoding.com/sketch -->
    <title>Group 16</title>
    <desc>Created with Sketch.</desc>
    <defs></defs>
    <g id="Homepage" stroke="none" stroke-width="1" fill="none" fill-rule="evenodd">
        <g id="v7c" transform="translate(-1069.000000, -4390.000000)">
            <rect fill="#FFFFFF" x="0" y="0" width="1440" height="6628"></rect>
            <g id="Group-9-Copy" transform="translate(112.000000, 3980.000000)">
                <g id="Group-7-Copy" transform="translate(0.000000, 244.000000)">
                    <g id="Group-4">
                        <g id="Group-16" transform="translate(957.000000, 166.000000)">
                            <circle id="Oval-3-Copy-9" fill="#34A853" fill-rule="nonzero" cx="20.5" cy="20.5" r="20.5"></circle>
                            <g id="Group-15" transform="translate(12.000000, 9.000000)">
                                <polygon id="Shape" points="0 3 24 3 24 27 0 27"></polygon>
                                <path d="M9,16 C10.1,16 11,15.1 11,14 C11,12.9 10.1,12 9,12 C7.9,12 7,12.9 7,14 C7,15.1 7.9,16 9,16 Z M15,7 L14,7 L14,5 C14,2.24 11.76,0 9,0 C6.24,0 4,2.24 4,5 L5.9,5 C5.9,3.29 7.29,1.9 9,1.9 C10.71,1.9 12.1,3.29 12.1,5 L12.1,7 L3,7 C1.9,7 1,7.9 1,9 L1,19 C1,20.1 1.9,21 3,21 L15,21 C16.1,21 17,20.1 17,19 L17,9 C17,7.9 16.1,7 15,7 Z M15,19 L3,19 L3,9 L15,9 L15,19 Z" id="Shape" fill="#FFFFFF" fill-rule="nonzero"></path>
                            </g>
                        </g>
                    </g>
                </g>
            </g>
        </g>
    </g>
</svg>
